crypto/mask.svg

<svg fill="none" height="32" viewBox="0 0 32 32" width="32" xmlns="http://www.w3.org/2000/svg"><path d="m16 32c8.8366 0 16-7.1634 16-16 0-8.83656-7.1634-16-16-16-8.83656 0-16 7.16344-16 16 0 8.8366 7.16344 16 16 16z" fill="#1c68f3"/><path d="m25.5999 12.2667v5.3333h-16-.68839c.33137 1.4633 1.10819 2.7879 2.22359 3.7914 1.1153 1.0035 2.5144 1.6366 4.0044 1.8121 1.4901.1754 2.9979-.1154 4.3159-.8323 1.3179-.717 2.3812-1.8249 3.0434-3.1712h3.1011v4.48c0 .2521-.0497.5018-.1461.7347-.0965.233-.238.4447-.4163.6229-.1782.1783-.3899.3198-.6228.4162-.233.0965-.4827.1462-.7348.1462h-15.36c-.25214 0-.5018-.0497-.73475-.1462-.23294-.0964-.4446-.2379-.62289-.4162-.17829-.1782-.31972-.3899-.41621-.6229-.09649-.2329-.14615-.4826-.14615-.7347v-11.4133zm-4.9426 6.9334c-.519.7599-1.2155 1.3817-2.0293 1.8113-.8137.4297-1.72.6543-2.6402.6543s-1.8265-.2246-2.6403-.6543c-.8137-.4296-1.5103-1.0514-2.0293-1.8113zm-8.7641-5.6534c-.7182 0-1.4123.2588-1.9553.729-.54296.4701-.89835 1.1201-1.00109 1.831h1.63659c.0903-.279.2667-.5222.5038-.6947s.5228-.2654.816-.2654c.2933 0 .5789.0929.8161.2654.2371.1725.4134.4157.5037.6947h1.6367c-.1028-.7109-.4582-1.3609-1.0011-1.831-.543-.4702-1.2371-.729-1.9554-.729zm8.2134 0c-.7182 0-1.4124.2588-1.9554.729-.5429.4701-.8983 1.1201-1.0011 1.831h1.6367c.0903-.279.2666-.5222.5038-.6947.2371-.1725.5227-.2654.816-.2654.2932 0 .5789.0929.816.2654s.4135.4157.5038.6947h1.6366c-.1027-.7109-.4581-1.3609-1.0011-1.831-.5429-.4702-1.2371-.729-1.9553-.729zm3.5733-7.14671c.2521 0 .5018.04967.7348.14615.2329.09649.4446.23792.6228.41621.1783.17829.3198.38995.4163.62289.0964.23295.1461.48262.1461.73475v2.34671h-19.2v-2.34671c0-.50921.20229-.99757.56236-1.35764s.84843-.56236 1.35764-.56236z" fill="#fff"/></svg>

<svg width="32" height="32" fill="none" xmlns="http://www.w3.org/2000/svg"><path d="M16 32c8.837 0 16-7.163 16-16S24.837 0 16 0 0 7.163 0 16s7.163 16 16 16Z" fill="#1C68F3"/><path d="M25.6 12.267V17.6H8.912a7.255 7.255 0 0 0 13.587 1.6h3.1v4.48a1.921 1.921 0 0 1-1.92 1.92H8.32a1.92 1.92 0 0 1-1.92-1.92V12.267h19.2ZM20.657 19.2a5.654 5.654 0 0 1-9.339 0h9.34Zm-8.764-5.653a2.987 2.987 0 0 0-2.956 2.56h1.636a1.388 1.388 0 0 1 2.64 0h1.637a2.988 2.988 0 0 0-2.957-2.56Zm8.214 0a2.987 2.987 0 0 0-2.957 2.56h1.637a1.387 1.387 0 0 1 2.64 0h1.636a2.987 2.987 0 0 0-2.956-2.56ZM23.68 6.4a1.92 1.92 0 0 1 1.92 1.92v2.347H6.4V8.32A1.92 1.92 0 0 1 8.32 6.4h15.36Z" fill="#fff"/></svg>
